X:375
T:Nine Pint Coggie, The
B:The Scottish Violinist (Scott Skinner)
N:"Ancient reel"
Z:Nigel Gatherer
L:1/8
M:4/4
K:G
c | B>G G/G/G G2 DE | =F2 cF Accd  | B>G G/G/G G2 DF | G2  gd B d3 :|
f | gagd Bcde | =fgfc ABc^f | gagd Bcdf | g/f/e/f/ gd Bd2f |
    gagd Bcde | =fgfc ABce  | (3dcB (3cBA G2 DF | G2gd Bd3 |]
